packages/web-icons/svgs/logo_ridistory_1.svg

<svg viewBox="0 0 59 48" xmlns="http://www.w3.org/2000/svg" class="ridi_icon"><path d="M8.785 30.889c-.186.579-.32 1.179-.402 1.798-.641 4.906 2.286 9.48 6.845 11.337.918.369 1.9.635 2.932.766 3.582.459 6.989-.748 9.353-2.99 1.766 2.458 4.56 4.222 7.884 4.648 4.114.529 7.976-1.136 10.33-4.049 2.084.187 4.966 1.274 6.08 5.602 0 0 6.515-8.298 1.378-15.976 2.99-1.596 5.168-4.481 5.621-7.995a10.283 10.283 0 0 0-.433-4.573c-1.286-3.901-4.842-6.951-9.344-7.529a10.927 10.927 0 0 0-.929-.082c-.062-5.303-4.213-9.916-9.86-10.641-3.116-.397-6.096.461-8.379 2.168A11.542 11.542 0 0 0 23.146.096a11.678 11.678 0 0 0-4.062.189c-4.403.99-7.898 4.499-8.492 9.053-.021.115-.03.231-.041.341-3.227.192-6.144 1.708-8.063 4.045a10.304 10.304 0 0 0-2.292 5.274c-.723 5.508 3.055 10.598 8.589 11.891"/></svg>

<?xml version="1.0" encoding="UTF-8"?>
<svg width="59px" height="48px" viewBox="0 0 59 48" version="1.1" xmlns="http://www.w3.org/2000/svg">
  <!-- Generator: Sketch 41.2 (35397) - http://www.bohemiancoding.com/sketch -->
  <title>logo_ridistory_1</title>
  <desc>Created with Sketch.</desc>
  <defs></defs>
  <g id="Page-1" stroke="none" stroke-width="1" fill="none" fill-rule="evenodd">
    <g id="logo_ridistory_1" fill="#4187C4">
      <g id="Layer_1">
        <path d="M8.785,30.889 C8.599,31.468 8.465,32.068 8.383,32.687 C7.742,37.593 10.669,42.167 15.228,44.024 C16.146,44.393 17.128,44.659 18.16,44.79 C21.742,45.249 25.149,44.042 27.513,41.8 C29.279,44.258 32.073,46.022 35.397,46.448 C39.511,46.977 43.373,45.312 45.727,42.399 C47.811,42.586 50.693,43.673 51.807,48.001 C51.807,48.001 58.322,39.703 53.185,32.025 C56.175,30.429 58.353,27.544 58.806,24.03 C59.013,22.448 58.848,20.894 58.373,19.457 C57.087,15.556 53.531,12.506 49.029,11.928 C48.715,11.886 48.41,11.861 48.1,11.846 C48.038,6.543 43.887,1.93 38.24,1.205 C35.124,0.808 32.144,1.666 29.861,3.373 C28.132,1.643 25.809,0.439 23.146,0.096 C21.753,-0.083 20.369,-0.007 19.084,0.285 C14.681,1.275 11.186,4.784 10.592,9.338 C10.571,9.453 10.562,9.569 10.551,9.679 C7.324,9.871 4.407,11.387 2.488,13.724 C1.27,15.198 0.454,16.995 0.196,18.998 C-0.527,24.506 3.251,29.596 8.785,30.889" id="Shape"></path>
      </g>
    </g>
  </g>
</svg>
